X:425
T: AUS DEM DOERFLEIN DA DRUEBEN
N: F0790
O: Europa, Mitteleuropa, Deutschland
R: Geselligkeits -, Tageszeiten - Lied, Abend
M: 3/4
L: 1/16
K: Eb
EF | G2GAB4G2B2 | e2dcB4z2
BA | G2GAB4G2e2 | B2G2E4z2
F2 | F4F2F2F2FF | G3GG4z2
EF | G4G2G2AGFG | A2A2A4z4 | D4z6
EF | G2GAB4G2B2 | e2dcB4z2
EF | G2GAB4G2E2 | F2F2E4z2
GA | B4B4B4 | c4c4
c4 | d6c2d4 | e4z4B,4 | B,8z2

@@@ Tune index: 5856
